X: 07110
T: STONEY'S REEL
C: Bob McQuillen 20 Feb 89
B: Bob's Note Book 7 #110
%R: reel
Z: 2019 John Chambers <jc:trillian.mit.edu>
M: C
L: 1/8
K: D
AB \
| d2AG FDFA | dfdA FDFA | BdAF Adfd | BdAF E2AB |\
| d2AG FDFA | dfdA BAFA | GEGB AFAd | fedc d2 :|
|: fg \
| a2ba fddf | a2fa bafe | fafd Bdfe | dBBA B2df |\
| a2ba fddf | a2fa bafe | fafd BAdf | afef d2 :|
%%begintext align
%% Chris Stoney is a real
%% dedicated dancer. When we used to play up in the
%% Dublin Town Hall, Chris always brought some
%% bakery goodies to share with everybody during
%% intermission. They were _so_ good! Thanks a lot, Chris!
%%endtext

%%sep 1 1 500

%%sep 1 1 500

